arcticons-light/symbolic/apps/steam_icon_1085660-symbolic.svg

<?xml version="1.0" encoding="UTF-8" standalone="no"?>
<svg
   viewBox="0 0 48 48"
   version="1.1"
   id="svg1"
   sodipodi:docname="steam_icon_1085660.svg"
   xmlns:inkscape="http://www.inkscape.org/namespaces/inkscape"
   xmlns:sodipodi="http://sodipodi.sourceforge.net/DTD/sodipodi-0.dtd"
   xmlns="http://www.w3.org/2000/svg"
   xmlns:svg="http://www.w3.org/2000/svg">
  <sodipodi:namedview
     id="namedview1"
     pagecolor="#ffffff"
     bordercolor="#666666"
     borderopacity="1.0"
     inkscape:showpageshadow="2"
     inkscape:pageopacity="0.0"
     inkscape:pagecheckerboard="0"
     inkscape:deskcolor="#d1d1d1" />
  <defs
     id="defs1">
    <style
       id="style1">.a{fill:none;stroke:#000;stroke-width:2px;stroke-linecap:round;stroke-linejoin:round;}</style>
  </defs>
  <path
     style="color:#000000;fill:#000000;stroke-linecap:round;stroke-linejoin:round;-inkscape-stroke:none"
     d="m 24,7.7636719 c -2.805939,0 -5.095703,2.2897641 -5.095703,5.0957031 V 19.6875 c 0,2.805939 2.289764,5.095703 5.095703,5.095703 2.805939,0 5.095703,-2.289764 5.095703,-5.095703 V 12.859375 C 29.095703,10.053436 26.805939,7.7636719 24,7.7636719 Z m 0,2 c 1.732535,0 3.095703,1.3631681 3.095703,3.0957031 V 19.6875 c 0,1.732535 -1.363168,3.095703 -3.095703,3.095703 -1.732535,0 -3.095703,-1.363168 -3.095703,-3.095703 v -6.828125 c 0,-1.732535 1.363168,-3.0957031 3.095703,-3.0957031 z"
     id="rect1" />
  <path
     style="color:#000000;fill:#000000;stroke-linecap:round;stroke-linejoin:round;-inkscape-stroke:none"
     d="m 36.724609,5.6582031 c -0.849253,0.033033 -1.732998,0.2397483 -2.625,0.65625 a 1.0001,1.0001 0 0 0 -0.04297,0.021484 c 0,0 -0.178161,0.091878 -0.38086,0.203125 -0.202698,0.1112468 -0.391977,0.2102767 -0.599609,0.3554687 l 0.0918,-0.058594 C 31.189953,7.9181082 29.073534,8.7257769 26.876953,9.234375 a 1,1 0 0 0 -0.748047,1.199219 1,1 0 0 0 1.199219,0.75 c 2.374215,-0.549728 4.662806,-1.4221127 6.800781,-2.5917971 a 1.0001,1.0001 0 0 0 0.0918,-0.058594 c -0.01443,0.010092 0.232068,-0.1382064 0.417969,-0.2402343 0.166251,-0.091243 0.282919,-0.152322 0.3125,-0.1679688 2.686544,-1.2509523 4.857496,-0.036034 5.960937,1.898438 1.104302,1.935979 1.045593,4.425817 -1.404297,6.101562 a 1.0001,1.0001 0 0 0 -0.03711,0.02734 c -5.648277,4.260526 -10.837891,11.727337 -10.837891,19.521484 0,2.570138 -2.062676,4.630859 -4.632812,4.630859 -2.570136,0 -4.632812,-2.060721 -4.632813,-4.630859 0,-7.794147 -5.189613,-15.260958 -10.8378901,-19.521484 a 1.0001,1.0001 0 0 0 -0.033203,-0.02344 C 6.0644332,14.449824 6.0061965,11.965664 7.1074219,10.035156 8.207786,8.1061589 10.372648,6.8932692 13.052734,8.1269531 c 0.0321,0.016983 0.144389,0.075895 0.308594,0.1660157 0.185901,0.1020279 0.432401,0.2503265 0.417969,0.2402343 a 1.0001,1.0001 0 0 0 0.0918,0.058594 c 2.137942,1.1696743 4.426602,2.0420591 6.800781,2.5917971 a 1,1 0 0 0 1.199219,-0.75 1,1 0 0 0 -0.748047,-1.199219 C 18.926499,8.7257674 16.810017,7.9200523 14.832031,6.8378906 l 0.0918,0.056641 C 14.716196,6.7493392 14.526917,6.6522625 14.324219,6.5410156 14.12152,6.4297688 13.943359,6.3359375 13.943359,6.3359375 A 1.0001,1.0001 0 0 0 13.896484,6.3125 C 10.334787,4.6683985 6.8969687,6.3646041 5.3691406,9.0429688 3.8413126,11.721333 4.1313217,15.54444 7.359375,17.773437 L 7.3242187,17.75 c 5.2099123,3.929865 10.0429693,11.040189 10.0429683,17.923828 10e-7,3.651016 2.981799,6.63086 6.632813,6.630859 3.651014,0 6.632812,-2.979843 6.632812,-6.630859 0,-6.883639 4.833057,-13.993963 10.042969,-17.923828 l -0.03906,0.02539 C 43.886918,15.552227 44.182046,11.716435 42.650391,9.03125 41.501649,7.0173615 39.272369,5.5591038 36.724609,5.6582031 Z"
     id="path1" />
</svg>

<?xml version="1.0" encoding="UTF-8"?>
<svg id="svg10" version="1.1" viewBox="0 0 48 48" xmlns="http://www.w3.org/2000/svg">
 <defs id="defs4">
  <style id="style2">.a{fill:none;stroke:#000;stroke-width:2px;stroke-linecap:round;stroke-linejoin:round;}</style>
 </defs>
 <path id="rect6" d="m24 7.7637c-2.8059 0-5.0957 2.2898-5.0957 5.0957v6.8281c0 2.8059 2.2898 5.0957 5.0957 5.0957s5.0957-2.2898 5.0957-5.0957v-6.8281c0-2.8059-2.2898-5.0957-5.0957-5.0957zm0 2c1.7325 0 3.0957 1.3632 3.0957 3.0957v6.8281c0 1.7325-1.3632 3.0957-3.0957 3.0957s-3.0957-1.3632-3.0957-3.0957v-6.8281c0-1.7325 1.3632-3.0957 3.0957-3.0957z" color="#000000" stroke-linecap="round" stroke-linejoin="round" style="-inkscape-stroke:none"/>
 <path id="path8" d="m36.725 5.6582c-0.84925 0.033033-1.733 0.23975-2.625 0.65625a1.0001 1.0001 0 0 0-0.04297 0.021484s-0.17816 0.091878-0.38086 0.20312c-0.2027 0.11125-0.39198 0.21028-0.59961 0.35547l0.0918-0.058594c-1.978 1.0822-4.0944 1.8898-6.291 2.3984a1 1 0 0 0-0.74805 1.1992 1 1 0 0 0 1.1992 0.75c2.3742-0.54973 4.6628-1.4221 6.8008-2.5918a1.0001 1.0001 0 0 0 0.0918-0.058594c-0.01443 0.010092 0.23207-0.13821 0.41797-0.24023 0.16625-0.091243 0.28292-0.15232 0.3125-0.16797 2.6865-1.251 4.8575-0.036034 5.9609 1.8984 1.1043 1.936 1.0456 4.4258-1.4043 6.1016a1.0001 1.0001 0 0 0-0.03711 0.02734c-5.6483 4.2605-10.838 11.727-10.838 19.521 0 2.5701-2.0627 4.6309-4.6328 4.6309s-4.6328-2.0607-4.6328-4.6309c0-7.7941-5.1896-15.261-10.838-19.521a1.0001 1.0001 0 0 0-0.033203-0.02344c-2.4317-1.6791-2.4899-4.1632-1.3887-6.0937 1.1004-1.929 3.2652-3.1419 5.9453-1.9082 0.0321 0.016983 0.14439 0.075895 0.30859 0.16602 0.1859 0.10203 0.4324 0.25033 0.41797 0.24023a1.0001 1.0001 0 0 0 0.0918 0.058594c2.1379 1.1697 4.4266 2.0421 6.8008 2.5918a1 1 0 0 0 1.1992-0.75 1 1 0 0 0-0.74805-1.1992c-2.1966-0.50861-4.313-1.3143-6.291-2.3965l0.0918 0.056641c-0.20764-0.14519-0.39691-0.24227-0.59961-0.35352-0.2027-0.11125-0.38086-0.20508-0.38086-0.20508a1.0001 1.0001 0 0 0-0.046875-0.023438c-3.5617-1.6441-6.9995 0.052104-8.5273 2.7305-1.5278 2.6784-1.2378 6.5015 1.9902 8.7305l-0.035156-0.023437c5.2099 3.9299 10.043 11.04 10.043 17.924 0 3.651 2.9818 6.6309 6.6328 6.6309s6.6328-2.9798 6.6328-6.6309c0-6.8836 4.8331-13.994 10.043-17.924l-0.03906 0.02539c3.2502-2.2232 3.5453-6.059 2.0137-8.7441-1.1487-2.0139-3.378-3.4721-5.9258-3.373z" color="#000000" stroke-linecap="round" stroke-linejoin="round" style="-inkscape-stroke:none"/>
</svg>
